logo/ghost.svg

<?xml version="1.0" encoding="UTF-8" standalone="no"?>
<svg width="512px" height="165px" viewBox="0 0 512 165" version="1.1" xmlns="http://www.w3.org/2000/svg" xmlns:xlink="http://www.w3.org/1999/xlink" preserveAspectRatio="xMidYMid">
	<g>
		<g transform="translate(0.000000, 37.436559)" fill="#3D515B">
			<rect x="0.216911828" y="70.8013419" width="34.9073892" height="17.4542452"></rect>
			<rect x="52.5763441" y="70.8013419" width="34.8853677" height="17.4542452"></rect>
			<rect x="0.190486022" y="35.8939527" width="87.2822366" height="17.4542452"></rect>
			<rect x="0.216911828" y="0.988765591" width="52.3660387" height="17.4531441"></rect>
			<rect x="70.0305892" y="0.988765591" width="17.4531441" height="17.4531441"></rect>
		</g>
		<g transform="translate(125.522581, 0.000000)" fill="#404041">
			<path d="M215.342796,38.3251269 C187.311622,38.3251269 172.834684,58.1477849 172.834684,82.6004645 C172.834684,107.054245 186.954873,126.879105 215.342796,126.879105 C243.730718,126.879105 257.850908,107.054245 257.850908,82.6004645 C257.852009,58.1477849 243.372869,38.3251269 215.342796,38.3251269 L215.342796,38.3251269 Z M236.549505,82.6797419 L236.549505,82.6797419 C236.529686,98.4041978 231.231312,111.140335 215.342796,111.140335 C199.45428,111.140335 194.154804,98.4052989 194.138288,82.6797419 L194.138288,82.6797419 L194.138288,82.6412043 L194.138288,82.6015656 L194.138288,82.6015656 C194.154804,66.8782108 199.455381,54.1431742 215.343897,54.1431742 C231.231312,54.1431742 236.529686,66.8782108 236.549505,82.6015656 L236.549505,82.6015656 L236.549505,82.6412043 C236.549505,82.6544172 236.549505,82.666529 236.549505,82.6797419 L236.549505,82.6797419 Z"></path>
			<path d="M89.8301247,125.691045 L89.8301247,3.27569892 C89.8301247,3.27569892 105.976292,0.98215914 107.228215,0.813694624 C108.6464,0.622107527 110.529239,1.63179355 110.529239,3.62804301 L110.529239,49.0077591 C113.879811,45.8223484 117.569514,43.2546409 121.590641,41.2980301 C125.615071,39.3436215 130.33428,38.3647656 135.755974,38.3647656 C140.449858,38.3647656 144.608619,39.160843 148.239966,40.7540989 C151.873514,42.3440516 154.904774,44.5814366 157.334847,47.4563441 C159.76492,50.3356559 161.609222,53.7710108 162.866649,57.7657118 C164.122976,61.7604129 164.75169,66.1603097 164.75169,70.9654022 L164.75169,125.689944 L144.051475,125.689944 L144.051475,70.9654022 C144.051475,65.7143742 142.835888,61.6492043 140.405815,58.7698925 C137.974641,55.8938839 134.328981,54.4547785 129.466632,54.4547785 C125.891441,54.4547785 122.540869,55.2651699 119.413815,56.8870538 C116.283458,58.5078366 113.322667,60.7121892 110.529239,63.5078194 L110.529239,125.691045 L89.8301247,125.691045 L89.8301247,125.691045 Z"></path>
			<path d="M366.179097,126.870297 C351.934486,126.870297 343.006968,118.580301 343.006968,103.114598 L343.006968,57.2790366 L326.95329,57.2790366 C326.95329,57.2790366 330.365523,45.4777118 330.635286,44.5484043 C330.906151,43.6201978 331.61194,42.6226237 333.029024,42.4255312 C334.446108,42.2284387 342.987148,41.0370753 342.987148,41.0370753 L346.932301,15.9391656 C346.932301,15.9391656 358.52332,14.3051699 360.361015,14.0310022 C362.09631,13.7711484 363.669746,15.0208688 363.669746,16.9114151 L363.669746,41.0370753 L383.973574,41.0370753 L383.973574,57.2790366 L363.669746,57.2790366 L363.669746,102.496895 C363.669746,108.670624 367.428817,111.030228 371.031535,111.030228 C373.233686,111.030228 376.249531,109.860886 378.500129,108.817067 C379.890787,108.174039 382.045591,108.650804 382.602735,110.592 C383.094916,112.31188 385.712172,121.440895 385.712172,121.440895 C383.453867,122.898718 376.315596,126.870297 366.179097,126.870297 L366.179097,126.870297 Z"></path>
			<path d="M315.578082,57.5499011 C311.543742,56.2396215 303.960637,54.1420731 296.747492,54.1420731 C289.397815,54.1420731 283.614968,56.6811527 283.614968,62.7921204 C283.614968,70.4247742 296.078039,72.6467441 304.60917,75.7583828 C310.31274,77.838314 325.607776,81.8935742 325.607776,98.3436387 C325.607776,118.325953 309.013471,126.869196 291.311484,126.869196 C273.607295,126.869196 263.148181,120.284766 263.148181,120.284766 C263.148181,120.284766 265.894262,110.584292 266.450305,108.669523 C266.953497,106.94634 268.956353,106.341849 270.232499,106.831828 C274.788748,108.588043 283.015983,111.029127 292.315665,111.029127 C301.730959,111.029127 306.286108,108.154219 306.286108,102.025634 C306.286108,93.8688688 293.571991,91.3760344 285.16308,88.7235441 C279.370323,86.8979613 264.037849,82.6401032 264.037849,64.5483355 C264.037849,46.7263312 279.687432,38.3647656 296.412766,38.3647656 C310.570391,38.3647656 317.514873,41.325557 322.702039,43.9681376 C322.702039,43.9681376 319.811716,54.0418753 319.382297,55.5426409 C318.875802,57.3263828 317.412473,58.1444817 315.578082,57.5499011 L315.578082,57.5499011 Z"></path>
			<path d="M81.7493333,41.3156473 C81.7493333,39.3876645 80.1021247,38.2843871 78.5308903,38.4638624 C71.5842065,39.2599398 66.6282667,42.5290323 63.4219355,45.5724043 C57.1259871,40.6395871 48.3867527,38.2843871 38.5783742,38.2843871 C18.9131699,38.2843871 3.54876559,47.7756559 3.54876559,68.4714667 C3.54876559,80.3520688 8.6060043,88.5385634 16.6372473,93.3579699 C10.6727226,96.1811269 6.70004301,102.172077 6.70004301,108.061729 C6.70004301,117.914151 14.4835441,120.999363 14.4835441,120.999363 C14.4835441,120.999363 0.874253763,127.604714 0.874253763,140.819819 C0.874253763,157.73674 16.442357,164.576619 35.4656344,164.576619 C62.8868129,164.576619 81.7526366,153.250959 81.7526366,132.454951 C81.7526366,119.656052 71.958572,112.590452 50.615329,111.750331 C37.9496602,111.250443 29.7455484,110.794598 27.7129634,110.121841 C25.0274409,109.22997 23.7072516,107.07957 23.7072516,104.705652 C23.7072516,102.085092 25.8598538,99.5900559 29.2533677,97.8767828 C32.2130581,98.4008946 35.3368086,98.6596473 38.5805763,98.6596473 C58.2622968,98.6596473 73.611286,89.1959054 73.611286,68.4725677 C73.611286,63.4472602 72.704,59.0848 71.0545892,55.3576602 C73.9460129,53.8150538 77.5035871,52.7293935 81.7515355,52.7293935 C81.7493333,52.7293935 81.7493333,43.0740645 81.7493333,41.3156473 L81.7493333,41.3156473 Z M27.5555097,125.797849 C27.5555097,125.797849 37.8824946,126.188731 48.201772,126.666598 C59.7949935,127.202822 63.4076215,129.701161 63.4076215,135.704224 C63.4076215,143.038486 53.3327828,150.172353 39.2533333,150.172353 C25.8884817,150.172353 19.2126624,145.522512 19.2126624,137.780852 C19.2126624,133.339114 21.5579527,128.369961 27.5555097,125.797849 L27.5555097,125.797849 Z M38.6158108,84.2135398 C29.2996129,84.2135398 22.0314151,79.2653075 22.0314151,68.4714667 C22.0314151,57.6765247 29.3062194,52.7282925 38.6158108,52.7282925 C47.9265032,52.7282925 55.2002065,57.6633118 55.2002065,68.4714667 C55.2002065,79.2796215 47.9353118,84.2135398 38.6158108,84.2135398 L38.6158108,84.2135398 Z"></path>
		</g>
	</g>
</svg>

<svg viewBox="0 0 512 165" xmlns="http://www.w3.org/2000/svg"><g transform="translate(0 37.4366)"><g fill="#3D515B"><path d="M.21 70.8h34.9v17.45H.2Z"/><path d="M52.57 70.8h34.88v17.45H52.56Z"/><path d="M.19 35.89h87.28v17.45H.18Z"/><path d="M.21.98h52.36v17.45H.2Z"/><path d="M70.03.98h17.45v17.45H70.02Z"/></g></g><g transform="translate(125.523 0)"><g fill="#404041"><path d="M215.34 38.32c-28.04 0-42.51 19.82-42.51 44.27 0 24.45 14.12 44.27 42.5 44.27 28.38 0 42.5-19.83 42.5-44.28 0-24.46-14.48-44.28-42.51-44.28v0Zm21.2 44.35v0c-.02 15.72-5.32 28.46-21.21 28.46s-21.19-12.74-21.21-28.47v0 -.04 -.04 0c.01-15.73 5.31-28.46 21.2-28.46 15.88 0 21.18 12.73 21.2 28.45v0 .03c0 .01 0 .02 0 .03v0Z"/><path d="M89.83 125.69V3.27s16.14-2.3 17.39-2.47c1.41-.2 3.3.81 3.3 2.81v45.37c3.35-3.19 7.04-5.76 11.06-7.71 4.02-1.96 8.74-2.94 14.16-2.94 4.69 0 8.85.79 12.48 2.38 3.63 1.58 6.66 3.82 9.09 6.7 2.43 2.87 4.27 6.31 5.53 10.3 1.25 3.99 1.88 8.39 1.88 13.19v54.72h-20.71V70.89c0-5.26-1.22-9.32-3.65-12.2 -2.44-2.88-6.08-4.32-10.94-4.32 -3.58 0-6.93.81-10.06 2.43 -3.14 1.62-6.1 3.82-8.89 6.62v62.18h-20.7v0Z"/><path d="M366.17 126.87c-14.25 0-23.18-8.29-23.18-23.76V57.27h-16.06s3.41-11.81 3.68-12.74c.27-.93.97-1.93 2.39-2.13 1.41-.2 9.95-1.39 9.95-1.39l3.94-25.1s11.59-1.64 13.42-1.91c1.73-.26 3.3.98 3.3 2.88V41h20.3v16.24H363.6v45.21c0 6.17 3.75 8.53 7.36 8.53 2.2 0 5.21-1.17 7.46-2.22 1.39-.65 3.54-.17 4.1 1.77 .49 1.71 3.1 10.84 3.1 10.84 -2.26 1.45-9.4 5.42-19.54 5.42v0Z"/><path d="M315.57 57.54c-4.04-1.32-11.62-3.41-18.84-3.41 -7.35 0-13.14 2.53-13.14 8.65 0 7.63 12.46 9.85 20.99 12.96 5.7 2.07 20.99 6.13 20.99 22.58 0 19.98-16.6 28.52-34.3 28.52 -17.71 0-28.17-6.59-28.17-6.59s2.74-9.71 3.3-11.62c.5-1.73 2.5-2.33 3.78-1.84 4.55 1.75 12.78 4.19 22.08 4.19 9.41 0 13.97-2.88 13.97-9.01 0-8.16-12.72-10.65-21.13-13.31 -5.8-1.83-21.13-6.09-21.13-24.18 0-17.83 15.64-26.19 32.37-26.19 14.15 0 21.1 2.96 26.28 5.6 0 0-2.9 10.07-3.32 11.57 -.51 1.78-1.97 2.6-3.81 2v0Z"/><path d="M81.74 41.31c0-1.93-1.65-3.04-3.22-2.86 -6.95.79-11.91 4.06-15.11 7.1 -6.3-4.94-15.04-7.29-24.85-7.29 -19.67 0-35.03 9.49-35.03 30.18 0 11.88 5.05 20.06 13.08 24.88 -5.97 2.82-9.94 8.81-9.94 14.7 0 9.85 7.78 12.93 7.78 12.93s-13.61 6.6-13.61 19.82c0 16.91 15.56 23.75 34.59 23.75 27.42 0 46.28-11.33 46.28-32.13 0-12.8-9.8-19.87-31.14-20.71 -12.67-.5-20.87-.96-22.91-1.63 -2.69-.9-4.01-3.05-4.01-5.42 0-2.63 2.15-5.12 5.54-6.83 2.95.52 6.08.78 9.32.78 19.68 0 35.03-9.47 35.03-30.19 0-5.03-.91-9.39-2.56-13.12 2.89-1.55 6.44-2.63 10.69-2.63 -.01 0-.01-9.66-.01-11.42v0Zm-54.2 84.48c-.001 0 10.32.39 20.64.86 11.59.53 15.2 3.03 15.2 9.03 0 7.33-10.08 14.46-24.16 14.46 -13.37 0-20.05-4.65-20.05-12.4 0-4.45 2.34-9.42 8.34-11.99v0ZM38.6 84.2c-9.32 0-16.59-4.95-16.59-15.75s7.27-15.75 16.58-15.75c9.31 0 16.58 4.93 16.58 15.74 0 10.8-7.27 15.74-16.59 15.74v0Z"/></g></g></svg>
